X:37
T:John Doherty's
R:highland
S:Dermot and Tara Diamond
Z:id:hn-hf-37
M:C|
L:1/8
K:D
dcde dAAf | gfed cea2 | dcde dAFA |1 (3Bcd (3efg f<dd2 :|2 (3Bcd (3efg f<dde ||
fdfa gfed | cBce A3g | fdfa gfed | (3Bcd (3efg f<dde |
f2fa gfed | cBce A2a2 | (3fga (3gfe (3dcB (3ABA | (3Bcd (3efg f<dd2 ||

